src/img/logo.svg

<svg width="84" height="36" viewBox="0 0 84 36" fill="none" xmlns="http://www.w3.org/2000/svg">
<g clip-path="url(#clip0_8249_71244)">
<g clip-path="url(#clip1_8249_71244)">
<path d="M35.8388 9.89467C35.5344 6.78139 32.7598 4.50705 29.6473 4.81962C26.5464 5.13102 24.2823 7.89314 24.5856 10.9949C24.8888 14.0965 27.645 16.3677 30.7475 16.073C33.8615 15.7768 36.1431 13.008 35.8388 9.89467ZM31.6244 6.1248C31.6934 6.12461 31.745 6.13864 31.8092 6.1561L31.8231 6.15988C31.8482 6.28589 31.823 6.34445 31.7571 6.4517C31.6418 6.63944 31.5134 6.81919 31.385 6.99897C31.1583 7.3163 30.9316 7.6337 30.7763 7.99524C30.4396 8.7791 30.5181 9.69342 30.5974 10.6173C30.6668 11.4259 30.7368 12.2418 30.5296 12.984C30.2804 13.8769 29.6547 14.4609 28.8714 14.8965C28.8279 14.9038 28.78 14.9001 28.734 14.8965C28.7243 14.8958 28.7148 14.8951 28.7053 14.8944C28.6994 14.894 28.6935 14.8937 28.6876 14.8934L28.6801 14.8791C28.6354 14.7942 28.6328 14.789 28.6651 14.6924C28.707 14.5671 28.7905 14.4389 28.8691 14.318C28.8992 14.2719 28.9285 14.2268 28.9546 14.1834C29.2269 13.7297 29.4938 13.2396 29.5773 12.7101C29.6817 12.0489 29.6261 11.3685 29.5706 10.6881C29.5001 9.82472 29.4296 8.961 29.6858 8.13689C30.0006 7.12431 30.7374 6.59614 31.6244 6.1248Z" fill="#0B0803"/>
<path d="M49.1508 26.3191C48.7978 23.297 46.0619 21.133 43.0398 21.485C40.0162 21.8369 37.8506 24.5738 38.2037 27.5975C38.5569 30.6213 41.2948 32.7857 44.3182 32.4317C47.3403 32.0777 49.5038 29.3413 49.1508 26.3191ZM43.0482 22.7518C43.7793 22.6977 44.4632 22.8758 45.053 23.3143C46.0074 24.0239 46.4942 25.1967 46.6555 26.3449C46.8262 27.5566 46.8094 29.2394 46.0199 30.2541C45.5892 30.8072 45.0446 31.032 44.3702 31.1145C43.6517 31.1838 42.9327 30.991 42.3454 30.5724C41.4171 29.9028 40.9407 28.8024 40.7678 27.7C40.5708 26.4441 40.5781 24.6867 41.3917 23.6274C41.8246 23.0638 42.3654 22.8395 43.0482 22.7518Z" fill="#0B0803"/>
<path d="M17.756 0.275559C18.7365 0.146984 19.8464 0.247829 20.8003 0.488436C21.3805 0.634764 21.9594 0.833772 22.5525 0.917231C22.8936 0.965184 23.2514 0.961348 23.5955 0.967388C23.6512 1.9223 23.8354 4.21051 23.7251 5.0516C23.5494 5.08569 23.4144 5.07613 23.2377 5.05208C23.0567 4.84283 22.9716 4.37448 22.8629 4.10315C22.464 3.10811 21.6754 2.34353 20.6866 1.93795C19.4475 1.42969 17.9679 1.49503 16.7466 2.02262C15.4639 2.57674 14.4188 3.68575 13.9094 4.98474C13.1204 6.99678 13.1259 9.57764 14.0112 11.5582C14.6245 12.9304 15.7155 14.1375 17.1432 14.6732C18.5061 15.1846 19.9872 15.0334 21.2927 14.4352C21.8756 14.1378 22.4146 13.6956 22.7614 13.1351C22.9576 12.818 23.1018 12.2153 23.413 12.0105L23.4996 12.0449C23.834 12.4674 23.9585 13.7885 24.0684 14.3569C22.8101 15.4659 21.2921 16.2012 19.6236 16.4207C17.4399 16.7075 15.161 16.2668 13.3965 14.9052C11.7903 13.6657 10.8147 11.7182 10.5735 9.72239C10.2932 7.40315 10.8053 5.06253 12.2732 3.21657C13.6259 1.51562 15.6155 0.521155 17.756 0.275559Z" fill="#0B0803"/>
<path d="M58.7648 5.78424C58.1803 5.6387 57.4728 5.56013 56.8735 5.63445C55.4748 5.77185 54.2789 6.3111 53.3702 7.40782C52.3634 8.63643 51.8854 10.2143 52.0403 11.7951C52.1795 13.1427 52.7993 14.4826 53.8745 15.335C55.0037 16.2311 56.5993 16.4837 58.0006 16.3178C59.2449 16.1707 60.3478 15.6334 61.1194 14.6289C61.4724 14.1699 61.7287 13.6511 61.9309 13.1107C61.9061 13.0873 61.8815 13.063 61.8566 13.0387C61.7374 12.9214 61.6144 12.8004 61.454 12.7517C61.4398 12.7582 61.4276 12.7633 61.4168 12.7679C61.368 12.7884 61.3484 12.7967 61.308 12.8581C60.6425 13.8378 59.8799 14.4863 58.6887 14.709C57.7601 14.8826 56.8372 14.7229 56.0583 14.1763C55.4386 13.7414 54.9496 13.0994 54.6633 12.4009C56.0878 11.5563 57.6361 10.7014 59.2748 10.3657C59.5992 10.2993 59.9299 10.262 60.2596 10.2248C60.6063 10.1857 60.9518 10.1467 61.2875 10.0741C61.5128 10.0254 61.6746 9.97965 61.7513 9.74088C61.943 9.14175 61.6405 8.16289 61.3384 7.64659C60.7864 6.70181 59.8169 6.04602 58.7648 5.78424ZM57.3157 6.73748C57.582 6.73906 57.8672 6.75791 58.1235 6.82871C58.5574 6.94836 58.9503 7.2054 59.1619 7.61177C59.3085 7.89298 59.423 8.34383 59.3079 8.65151C59.2113 8.90982 59.0023 9.08634 58.7711 9.22291C58.4827 9.39289 58.1372 9.50224 57.8045 9.60754C57.6913 9.64335 57.5797 9.67869 57.4723 9.71578C56.8908 9.91663 56.3178 10.1358 55.7637 10.4038C55.637 10.4601 55.4769 10.5613 55.3063 10.6691C54.9859 10.8714 54.6287 11.097 54.3871 11.0931C54.2579 10.985 54.2248 10.8952 54.2112 10.7328C54.1213 9.65532 54.5552 8.42971 55.2521 7.61513C55.7626 7.0189 56.5637 6.79846 57.3157 6.73748Z" fill="#0B0803"/>
<path d="M69.2405 5.68141C68.8266 5.62468 68.4075 5.60887 67.9905 5.63419C66.5713 5.74995 65.3712 6.26762 64.4426 7.37248C63.421 8.596 62.9305 10.1771 63.0801 11.7642C63.2051 13.0787 63.8191 14.423 64.8544 15.2671C65.9689 16.176 67.6318 16.4869 69.0346 16.3278C70.2831 16.1865 71.405 15.5998 72.1844 14.6087C72.5431 14.1487 72.8242 13.6328 73.0158 13.0815C72.9916 13.0605 72.9663 13.0375 72.9401 13.0136C72.8102 12.8951 72.6574 12.7559 72.4948 12.7429C71.8267 13.7491 71.0268 14.4571 69.8146 14.7015C68.9012 14.8858 68.0146 14.7513 67.2305 14.2309C66.5577 13.7842 66.0682 13.1336 65.7194 12.4129C67.2594 11.3652 69.1539 10.5627 70.9848 10.224C71.2119 10.1819 71.4426 10.1641 71.6732 10.1463C71.8641 10.1315 72.0549 10.1168 72.2437 10.0883C72.4896 10.0512 72.7391 9.99499 72.7942 9.714C72.9492 8.92153 72.6366 7.9683 72.1687 7.33115C71.4628 6.36988 70.4055 5.84349 69.2405 5.68141ZM67.8881 6.77598C68.3655 6.73817 68.8303 6.71464 69.2904 6.88297C69.7316 7.04427 70.0872 7.3625 70.2789 7.79377C70.4055 8.07766 70.4606 8.39552 70.3408 8.69133C70.2726 8.8583 70.1476 9.00999 70.0026 9.11608C69.6557 9.3695 68.799 9.66852 68.0538 9.92864C67.6865 10.0568 67.3463 10.1756 67.1075 10.2748C66.7245 10.4455 66.3554 10.6527 65.987 10.8594C65.7826 10.9741 65.5784 11.0887 65.3722 11.1969C65.1994 10.1416 65.3076 9.06603 65.8822 8.14095C66.357 7.37731 67.0261 6.97342 67.8881 6.77598Z" fill="#0B0803"/>
<path d="M32.5198 18.342C33.6493 18.3357 36.8226 18.1949 37.6786 18.4208C37.7503 18.519 37.7436 18.5206 37.7348 18.643C37.5369 18.9765 37.1146 19.1104 36.8217 19.3494C36.6526 19.487 36.5 19.6834 36.4489 19.8988C36.26 20.6961 36.3345 21.6178 36.3339 22.4367L36.3114 25.8948C36.3055 26.7199 36.3312 27.5634 36.2346 28.3828C36.0963 29.5561 35.5784 30.6465 34.6304 31.3771C33.4486 32.2884 31.7991 32.4911 30.3547 32.2952C29.0898 32.124 27.8557 31.5761 27.0691 30.5378C26.3556 29.596 26.1748 28.4962 26.3262 27.3449C26.3662 27.1417 26.4171 26.9452 26.49 26.7509C26.7592 26.0334 27.2858 25.4436 27.996 25.139C28.7461 24.8175 29.692 24.7939 30.4458 25.1185C30.8125 25.276 31.0436 25.5476 31.1785 25.9231C31.261 26.1526 31.288 26.3491 31.1827 26.5723C30.8787 26.8596 30.1949 26.4746 29.7702 26.5938C29.3781 26.7036 29.0783 26.9783 28.8907 27.3344C28.5648 27.9526 28.5571 28.7604 28.79 29.4106C28.9976 29.9905 29.4681 30.4585 30.0223 30.7148C30.6802 31.0189 31.6053 31.095 32.2926 30.8393C32.825 30.6412 33.2162 30.2179 33.4309 29.6979C33.6159 29.2499 33.7027 28.7347 33.7462 28.2541C33.8445 27.1711 33.9663 20.6299 33.7277 19.9224C33.476 19.1761 32.6179 19.154 32.4213 18.6997C32.4214 18.5899 32.4238 18.5138 32.4768 18.4176C32.4907 18.3919 32.5054 18.3672 32.5198 18.342Z" fill="#0B0803"/>
<path d="M55.8574 30.46C56.339 29.2678 56.755 28.0393 57.1988 26.8318C57.5449 25.8916 57.9724 24.9189 58.1846 23.9404C58.2298 23.7319 58.2498 23.5255 58.1915 23.3175C58.0134 22.682 57.1935 22.7329 57.0081 22.2418C57.0339 22.1341 57.0186 22.0874 57.1216 22.0212C57.3112 21.8999 60.6584 21.8873 61.0687 21.9393C61.2052 21.9566 61.3024 21.9871 61.3922 22.0969C61.4016 22.3327 61.3444 22.4404 61.1322 22.5606C60.7919 22.7529 60.3585 22.8511 60.1033 23.1673C59.7015 23.6652 58.1883 27.9258 57.8149 28.8943L56.5669 32.1318C56.2528 32.9449 55.9587 33.8289 55.4913 34.5684C55.2082 35.0159 54.8269 35.4492 54.3647 35.7155C53.6903 36.1031 52.8352 36.1745 52.0899 35.9649C51.5106 35.8016 50.9806 35.4429 50.7033 34.8972C50.4838 34.4654 50.4297 33.8908 50.5909 33.4307C50.7112 33.0878 50.989 32.8036 51.3199 32.656C51.5342 32.561 51.8845 32.478 52.1062 32.5982C52.6335 32.885 52.29 33.832 52.4922 34.3373C52.5605 34.5069 52.6603 34.6267 52.8336 34.6965C53.1157 34.81 53.6052 34.6545 53.8594 34.5311C54.7187 34.1119 55.0795 32.7611 55.3652 31.927C55.0044 31.9338 54.5873 31.978 54.2318 31.916C54.1766 31.9065 54.1073 31.8918 54.0579 31.8629C53.9403 31.7946 53.8646 31.6707 53.8037 31.552C53.5232 31.0052 53.3331 30.3697 53.1141 29.7941L51.7501 26.2047C51.4817 25.4993 51.238 24.764 50.9087 24.0854C50.6629 23.5796 50.3351 23.0628 49.8298 22.7833C49.5793 22.6452 49.2495 22.6468 49.0798 22.3957C49.0504 22.2245 49.0809 22.1205 49.1339 21.9566C50.0384 21.9199 53.6745 21.8253 54.3431 22.0112C54.3799 22.1389 54.3862 22.3154 54.3358 22.4409C54.2559 22.6394 53.872 22.7003 53.6955 22.7712C53.5049 22.8479 53.3399 22.9635 53.2659 23.1636C53.1845 23.3847 53.2932 23.7403 53.3567 23.9646C53.6335 24.9452 54.08 25.9158 54.4476 26.8701C54.9072 28.0624 55.3216 29.2998 55.8574 30.46Z" fill="#0B0803"/>
<path d="M49.4559 1.16609C50.259 1.12423 51.0211 1.2268 51.7223 1.64709C52.2344 1.95382 52.6682 2.41544 52.7974 3.01263C52.8678 3.3368 52.8457 3.68009 52.6572 3.96166C52.4523 4.26739 52.0385 4.50569 51.675 4.55123C51.4565 4.57854 51.2002 4.54876 51.0253 4.40742C50.6193 4.07936 50.8084 3.49589 50.7312 3.04703C50.6891 2.80542 50.5636 2.60211 50.3546 2.47117C50.0384 2.27279 49.5441 2.20724 49.1854 2.30677C48.8719 2.39365 48.646 2.6154 48.5016 2.90128C48.042 3.80882 48.2962 4.99499 48.5804 5.91277C49.5436 5.93667 50.5111 5.91724 51.4749 5.91634C51.4775 6.32523 51.4702 6.72729 51.4392 7.13508C50.5085 7.13408 49.5757 7.11995 48.646 7.15546C48.5867 8.11179 48.6098 9.08346 48.604 10.042C48.5951 11.4766 48.4538 13.0603 48.7826 14.4562C48.8325 14.5855 48.8876 14.7073 48.9548 14.829C49.2448 15.3566 49.4233 15.3001 49.9391 15.4701C50.1151 15.5278 50.217 15.5993 50.2936 15.7631C50.2868 15.9018 50.2653 15.9543 50.1833 16.0662C50.1377 16.0951 50.1193 16.1119 50.0594 16.1229C49.8724 16.1586 45.3817 16.1392 45.1275 16.0972C44.9531 16.0678 44.8302 16.0294 44.7205 15.8813C44.7929 15.4575 45.2646 15.4874 45.5482 15.2132C45.8733 14.8992 46.0367 14.4781 46.127 14.0431C46.3235 13.0962 46.2478 12.0234 46.2441 11.0565L46.2258 7.1427L44.389 7.13587C44.3518 6.73165 44.3491 6.32361 44.3386 5.91797L46.1675 5.91703C46.0777 5.64344 45.9884 5.35924 45.949 5.07325C45.8324 4.22811 46.0288 3.3692 46.5483 2.68441C47.2389 1.77414 48.3498 1.30911 49.4559 1.16609Z" fill="#0B0803"/>
<path d="M41.8544 1.16718C42.5944 1.10489 43.3051 1.15883 43.969 1.52239C44.4994 1.81295 44.9527 2.29222 45.1155 2.88536C45.2164 3.25291 45.2274 3.71852 45.0194 4.05341C44.8724 4.29055 44.6265 4.42931 44.3566 4.47989C44.1108 4.52601 43.7857 4.52543 43.5803 4.36066C43.1916 4.04873 43.4516 3.44898 43.365 3.03583C43.313 2.78703 43.1123 2.576 42.8943 2.45667C42.5514 2.26858 42.0571 2.24573 41.6862 2.35729C41.3782 2.44989 41.1456 2.65131 41.0043 2.93982C40.5947 3.77603 40.9054 5.05722 41.1864 5.88939C42.1086 5.94407 43.0514 5.90158 43.9768 5.90636C43.9999 6.31897 43.9789 6.72324 43.9543 7.13539C43.0151 7.13328 42.0755 7.13665 41.1363 7.14536C41.0931 8.31972 41.0757 9.49486 41.0842 10.67C41.0809 11.8806 40.9604 13.2406 41.3155 14.4083C41.7056 15.2632 42.5157 15.4073 42.7068 15.864C42.6774 15.9475 42.6895 15.9617 42.607 16.0105C42.3108 16.1875 37.8136 16.1528 37.4115 16.0573C37.3961 16.0026 37.3754 15.9396 37.3734 15.8829C37.3613 15.5263 37.9235 15.3765 38.1395 15.1633C38.4403 14.8665 38.589 14.3165 38.6588 13.9069C38.8157 12.9865 38.7659 11.972 38.765 11.0395L38.757 7.14326L36.9252 7.13549C36.8975 6.72891 36.8978 6.32454 36.8996 5.91718C37.4839 5.92358 38.0682 5.9229 38.6525 5.91518C38.5621 5.61758 38.4667 5.31878 38.4208 5.01048C38.2959 4.17195 38.4782 3.34356 38.9909 2.66192C39.6796 1.74614 40.7517 1.32186 41.8544 1.16718Z" fill="#0B0803"/>
</g>
</g>
<defs>
<clipPath id="clip0_8249_71244">
<rect width="84" height="36" fill="white"/>
</clipPath>
<clipPath id="clip1_8249_71244">
<rect width="62.5159" height="35.861" fill="white" transform="translate(10.5 0.21936)"/>
</clipPath>
</defs>
</svg>

<svg xmlns="http://www.w3.org/2000/svg" width="84" height="36" fill="none"><g clip-path="url(#a)"><g fill="#0B0803" clip-path="url(#b)"><path d="M35.839 9.895a5.653 5.653 0 1 0-11.253 1.1 5.653 5.653 0 0 0 11.253-1.1Zm-4.215-3.77c.07 0 .121.014.185.031l.014.004c.025.126 0 .184-.066.292-.115.187-.244.367-.372.547-.227.317-.453.635-.609.996-.336.784-.258 1.698-.179 2.622.07.809.14 1.625-.067 2.367-.25.893-.875 1.477-1.659 1.912a.58.58 0 0 1-.137 0c-.01 0-.02 0-.029-.002h-.017l-.008-.015c-.045-.085-.047-.09-.015-.187.042-.125.126-.253.204-.374.03-.046.06-.091.086-.135.272-.453.539-.943.622-1.473.105-.661.05-1.342-.006-2.022-.07-.863-.141-1.727.115-2.551.315-1.013 1.051-1.54 1.938-2.012ZM49.15 26.32a5.51 5.51 0 1 0-10.946 1.278A5.51 5.51 0 0 0 49.15 26.32Zm-6.102-3.568c.731-.054 1.415.124 2.005.562.954.71 1.441 1.883 1.603 3.03.17 1.213.153 2.895-.636 3.91-.43.553-.975.778-1.65.86a2.994 2.994 0 0 1-2.025-.542c-.928-.67-1.404-1.77-1.577-2.872-.197-1.256-.19-3.013.624-4.073.433-.563.973-.787 1.656-.875ZM17.756.276c.98-.129 2.09-.028 3.044.212.58.147 1.16.346 1.752.43.342.047.7.043 1.044.05.055.954.24 3.243.13 4.084-.177.034-.312.024-.488 0-.181-.21-.266-.678-.375-.949a3.923 3.923 0 0 0-2.176-2.165c-1.24-.508-2.72-.443-3.94.085-1.283.554-2.328 1.663-2.838 2.962-.789 2.012-.783 4.593.102 6.573.614 1.372 1.705 2.58 3.132 3.115 1.363.512 2.844.36 4.15-.238.583-.297 1.122-.74 1.468-1.3.197-.317.34-.92.652-1.124l.087.034c.334.422.459 1.744.568 2.312-1.258 1.109-2.776 1.844-4.444 2.064-2.184.287-4.463-.154-6.227-1.516-1.607-1.24-2.582-3.187-2.824-5.183-.28-2.319.232-4.66 1.7-6.505C13.626 1.516 15.616.52 17.756.276ZM58.765 5.784c-.585-.145-1.292-.224-1.892-.15-1.398.138-2.594.677-3.503 1.774a5.999 5.999 0 0 0-1.33 4.387c.14 1.348.76 2.688 1.834 3.54 1.13.896 2.725 1.149 4.127.983 1.244-.147 2.347-.685 3.118-1.69.353-.458.61-.977.812-1.517l-.074-.072c-.12-.118-.243-.239-.403-.287l-.037.016a.186.186 0 0 0-.109.09c-.666.98-1.428 1.628-2.62 1.851-.928.174-1.85.014-2.63-.533a4.078 4.078 0 0 1-1.395-1.775c1.425-.845 2.973-1.7 4.612-2.035.324-.067.655-.104.985-.141.346-.04.692-.078 1.028-.15.225-.05.387-.095.463-.334.192-.6-.11-1.578-.413-2.094-.552-.945-1.521-1.601-2.573-1.863Zm-1.45.953c.267.002.552.02.809.092.433.12.826.376 1.038.783.147.281.261.732.146 1.04-.097.258-.306.434-.537.57-.288.17-.634.28-.967.386a15.607 15.607 0 0 0-2.04.796c-.127.056-.287.157-.458.265-.32.202-.677.428-.919.424-.13-.108-.162-.198-.176-.36-.09-1.078.344-2.303 1.041-3.118.51-.596 1.312-.817 2.064-.878ZM69.24 5.681a6.368 6.368 0 0 0-1.25-.047c-1.419.116-2.619.634-3.547 1.738a5.977 5.977 0 0 0-1.363 4.392c.125 1.315.74 2.659 1.774 3.503 1.115.909 2.778 1.22 4.18 1.06 1.25-.14 2.371-.727 3.15-1.718.36-.46.64-.976.832-1.527a4.184 4.184 0 0 1-.076-.068c-.13-.119-.283-.258-.445-.271-.668 1.006-1.468 1.714-2.68 1.958-.914.185-1.8.05-2.584-.47-.673-.447-1.163-1.097-1.512-1.818 1.54-1.048 3.435-1.85 5.266-2.189.227-.042.458-.06.688-.078.191-.014.382-.03.57-.058.247-.037.496-.093.551-.374.155-.792-.157-1.746-.625-2.383-.706-.961-1.763-1.488-2.928-1.65Zm-1.352 1.095c.477-.038.942-.061 1.402.107.442.161.797.48.989.91.127.285.182.603.062.898a1.021 1.021 0 0 1-.338.425c-.347.254-1.204.553-1.95.813-.367.128-.707.247-.945.346-.383.17-.753.378-1.121.584-.204.115-.409.23-.615.338-.173-1.055-.064-2.131.51-3.056.475-.764 1.144-1.168 2.006-1.365ZM32.52 18.342c1.13-.006 4.303-.147 5.159.079.071.098.065.1.056.222-.198.334-.62.467-.913.706-.17.138-.322.334-.373.55-.189.797-.114 1.719-.115 2.538l-.023 3.458c-.005.825.02 1.668-.076 2.488-.139 1.173-.657 2.264-1.605 2.994-1.181.911-2.83 1.114-4.275.918-1.265-.171-2.5-.719-3.286-1.757-.713-.942-.894-2.042-.743-3.193.04-.203.091-.4.164-.594.27-.718.796-1.307 1.506-1.612.75-.322 1.696-.345 2.45-.02.366.157.598.429.732.804.083.23.11.426.005.65-.304.287-.988-.098-1.413.02-.392.11-.692.385-.88.741-.325.619-.333 1.426-.1 2.077.208.58.678 1.047 1.232 1.304.658.304 1.583.38 2.27.124.533-.198.924-.621 1.139-1.141.185-.448.272-.963.315-1.444.098-1.083.22-7.624-.018-8.332-.252-.746-1.11-.768-1.307-1.222 0-.11.003-.186.056-.282l.043-.076ZM55.857 30.46c.482-1.192.898-2.42 1.342-3.628.346-.94.773-1.913.986-2.892.045-.208.065-.415.006-.623-.178-.635-.998-.584-1.183-1.075.026-.108.01-.155.114-.22.19-.122 3.536-.135 3.947-.083.136.018.233.048.323.158.01.236-.048.343-.26.464-.34.192-.773.29-1.029.606-.401.498-1.915 4.759-2.288 5.727l-1.248 3.238c-.314.813-.608 1.697-1.076 2.436-.283.448-.664.881-1.126 1.148-.675.387-1.53.459-2.275.249-.58-.163-1.11-.522-1.387-1.068-.22-.432-.273-1.006-.112-1.466.12-.343.398-.627.729-.775.214-.095.565-.178.786-.058.527.287.184 1.234.386 1.74.069.169.168.289.342.358.282.114.771-.041 1.025-.165.86-.42 1.22-1.77 1.506-2.604-.36.007-.778.051-1.133-.011a.548.548 0 0 1-.174-.053c-.118-.068-.193-.192-.254-.311-.28-.547-.47-1.182-.69-1.758l-1.364-3.59c-.268-.705-.512-1.44-.841-2.119-.246-.505-.574-1.022-1.08-1.302-.25-.138-.58-.136-.75-.387-.029-.172.002-.276.055-.44.904-.036 4.54-.13 5.21.055a.722.722 0 0 1-.008.43c-.08.198-.464.26-.64.33-.191.077-.356.192-.43.393-.081.22.027.576.09.8.277.981.724 1.952 1.092 2.906.46 1.192.874 2.43 1.41 3.59ZM49.456 1.166c.803-.042 1.565.06 2.266.481.512.307.946.768 1.075 1.366.07.324.049.667-.14.949-.205.305-.618.544-.982.59-.218.027-.475-.003-.65-.145-.406-.328-.217-.911-.294-1.36a.826.826 0 0 0-.376-.576c-.317-.198-.81-.264-1.17-.164-.313.087-.539.308-.683.594-.46.908-.206 2.094.078 3.012.964.024 1.931.004 2.895.003.002.41-.005.811-.036 1.22-.93-.002-1.863-.016-2.793.02-.06.956-.036 1.927-.042 2.886-.009 1.435-.15 3.018.179 4.414.05.13.105.251.172.373.29.528.468.471.984.641.176.058.278.13.355.293a.45.45 0 0 1-.11.303c-.046.03-.065.046-.125.057-.187.036-4.677.016-4.931-.026-.175-.03-.298-.068-.407-.216.072-.424.544-.394.827-.668.325-.314.489-.735.579-1.17.197-.947.12-2.02.117-2.986l-.018-3.914-1.837-.007c-.037-.404-.04-.812-.05-1.218l1.828-.001a4.89 4.89 0 0 1-.218-.844c-.117-.845.08-1.704.6-2.389.69-.91 1.8-1.375 2.907-1.518Z"/><path d="M41.854 1.167c.74-.062 1.451-.008 2.115.355.53.291.984.77 1.146 1.363.101.368.112.834-.096 1.168-.147.238-.392.376-.662.427-.246.046-.571.045-.777-.12-.388-.311-.128-.911-.215-1.324-.052-.249-.253-.46-.47-.58-.344-.187-.838-.21-1.209-.099a1.09 1.09 0 0 0-.682.583c-.41.836-.099 2.117.182 2.95.923.054 1.865.012 2.79.016.024.413.003.817-.022 1.23-.939-.003-1.879 0-2.818.01a80.115 80.115 0 0 0-.052 3.524c-.003 1.21-.124 2.57.231 3.738.39.855 1.2 1 1.392 1.456-.03.083-.017.098-.1.146-.296.177-4.793.143-5.196.047-.015-.054-.036-.117-.038-.174-.012-.357.55-.506.767-.72.3-.296.449-.847.519-1.256.157-.92.107-1.935.106-2.867l-.008-3.897-1.832-.008a16.779 16.779 0 0 1-.025-1.218 72.54 72.54 0 0 0 1.753-.002c-.09-.297-.186-.596-.232-.905-.125-.838.057-1.666.57-2.348.689-.916 1.76-1.34 2.863-1.495Z"/></g></g><defs><clipPath id="a"><path fill="#fff" d="M0 0h84v36H0z"/></clipPath><clipPath id="b"><path fill="#fff" d="M10.5.22h62.516v35.86H10.5z"/></clipPath></defs></svg>
